images/top/top-item-1.svg

<svg width="70" height="70" viewBox="0 0 70 70" fill="none" xmlns="http://www.w3.org/2000/svg">
<path d="M14.9365 11.0298C14.7349 11.0229 14.5366 11.0468 14.3418 11.0879C13.1831 11.3408 12.25 12.3764 12.25 13.6548V20.125C12.25 21.5639 13.436 22.75 14.875 22.75H23.9907C24.377 23.7173 25.1494 24.5 26.25 24.5H28V27.125H22.75C21.6494 27.125 20.877 27.9077 20.4907 28.875H12.25C11.9355 28.8716 11.6416 29.0356 11.481 29.3091C11.3237 29.5825 11.3237 29.9175 11.481 30.1909C11.6416 30.4643 11.9355 30.6284 12.25 30.625H20.125C20.125 31.1069 20.5181 31.5 21 31.5C21.4819 31.5 21.875 31.1069 21.875 30.625V29.75C21.875 29.2544 22.2544 28.875 22.75 28.875H28.728C28.8237 28.8921 28.9194 28.8921 29.0117 28.875H33.978C34.0737 28.8921 34.1694 28.8921 34.2617 28.875H40.25C40.7456 28.875 41.125 29.2544 41.125 29.75V30.625C41.125 31.1069 41.5181 31.5 42 31.5C42.4819 31.5 42.875 31.1069 42.875 30.625H47.25C56.4409 30.625 63.875 38.0591 63.875 47.25V53.375H64.75C65.2456 53.375 65.625 53.7544 65.625 54.25C65.625 54.7456 65.2456 55.125 64.75 55.125H50.75C50.2544 55.125 49.875 54.7456 49.875 54.25C49.875 53.7544 50.2544 53.375 50.75 53.375H51.625V49C51.625 46.5937 49.6562 44.625 47.25 44.625H42.875C42.875 44.143 42.4819 43.75 42 43.75C41.5181 43.75 41.125 44.143 41.125 44.625V45.5C41.125 45.9956 40.7456 46.375 40.25 46.375H22.75C22.2544 46.375 21.875 45.9956 21.875 45.5V44.625C21.875 44.143 21.4819 43.75 21 43.75C20.5181 43.75 20.125 44.143 20.125 44.625H12.25C11.9355 44.6216 11.6416 44.7856 11.481 45.0591C11.3237 45.3325 11.3237 45.6675 11.481 45.9409C11.6416 46.2143 11.9355 46.3784 12.25 46.375H20.4907C20.877 47.3423 21.6494 48.125 22.75 48.125H40.25C41.3506 48.125 42.123 47.3423 42.5093 46.375H47.25C48.7095 46.375 49.875 47.5405 49.875 49V51.9907C48.9077 52.3769 48.125 53.1494 48.125 54.25C48.125 55.6889 49.311 56.875 50.75 56.875H64.75C66.189 56.875 67.375 55.6889 67.375 54.25C67.375 53.1494 66.5923 52.3769 65.625 51.9907V47.25C65.625 37.1123 57.3877 28.875 47.25 28.875H42.5093C42.123 27.9077 41.3506 27.125 40.25 27.125H35V24.5H36.75C37.8506 24.5 38.623 23.7173 39.0093 22.75H48.125C49.564 22.75 50.75 21.5639 50.75 20.125V13.6548C50.75 11.9492 49.0923 10.6777 47.4482 11.1152L37.6216 13.7368C36.6919 12.8686 35.5059 12.25 34.125 12.25H28.875C27.4941 12.25 26.3081 12.8686 25.3784 13.7368L15.5518 11.1152H15.5483C15.3433 11.0605 15.1382 11.0332 14.9365 11.0298ZM14.8887 12.7729C14.957 12.7763 15.0288 12.7866 15.1006 12.8071L25.8569 15.6782L26.2192 15.2544C26.8652 14.4853 27.8018 14 28.875 14H34.125C35.1982 14 36.1348 14.4887 36.7808 15.2544L37.1431 15.6782L47.8994 12.8071C48.4736 12.6533 49 13.0566 49 13.6548V20.125C49 20.6206 48.6206 21 48.125 21H39.375C39.375 20.518 38.9819 20.125 38.5 20.125C38.0181 20.125 37.625 20.518 37.625 21V21.875C37.625 22.3706 37.2456 22.75 36.75 22.75H34.2617C34.2104 22.7431 34.1626 22.7363 34.1113 22.7363C34.0703 22.7397 34.0259 22.7431 33.9849 22.75H29.0117C28.9604 22.7431 28.9126 22.7363 28.8613 22.7363C28.8203 22.7397 28.7759 22.7431 28.7349 22.75H26.25C25.7544 22.75 25.375 22.3706 25.375 21.875V21C25.375 20.518 24.9819 20.125 24.5 20.125C24.0181 20.125 23.625 20.518 23.625 21H14.875C14.3794 21 14 20.6206 14 20.125V13.6548C14 13.1318 14.4033 12.7558 14.8887 12.7729ZM24.5 16.625C24.0181 16.625 23.625 17.018 23.625 17.5C23.625 17.9819 24.0181 18.375 24.5 18.375C24.9819 18.375 25.375 17.9819 25.375 17.5C25.375 17.018 24.9819 16.625 24.5 16.625ZM38.5 16.625C38.0181 16.625 37.625 17.018 37.625 17.5C37.625 17.9819 38.0181 18.375 38.5 18.375C38.9819 18.375 39.375 17.9819 39.375 17.5C39.375 17.018 38.9819 16.625 38.5 16.625ZM29.75 24.5H33.25V27.125H29.75V24.5ZM5.25 28.875C4.76807 28.875 4.375 29.268 4.375 29.75C4.375 30.2319 4.76807 30.625 5.25 30.625C5.73193 30.625 6.125 30.2319 6.125 29.75C6.125 29.268 5.73193 28.875 5.25 28.875ZM8.75 28.875C8.26807 28.875 7.875 29.268 7.875 29.75C7.875 30.2319 8.26807 30.625 8.75 30.625C9.23193 30.625 9.625 30.2319 9.625 29.75C9.625 29.268 9.23193 28.875 8.75 28.875ZM21 33.25C20.5181 33.25 20.125 33.643 20.125 34.125C20.125 34.6069 20.5181 35 21 35C21.4819 35 21.875 34.6069 21.875 34.125C21.875 33.643 21.4819 33.25 21 33.25ZM42 33.25C41.5181 33.25 41.125 33.643 41.125 34.125C41.125 34.6069 41.5181 35 42 35C42.4819 35 42.875 34.6069 42.875 34.125C42.875 33.643 42.4819 33.25 42 33.25ZM21 36.75C20.5181 36.75 20.125 37.143 20.125 37.625C20.125 38.1069 20.5181 38.5 21 38.5C21.4819 38.5 21.875 38.1069 21.875 37.625C21.875 37.143 21.4819 36.75 21 36.75ZM42 36.75C41.5181 36.75 41.125 37.143 41.125 37.625C41.125 38.1069 41.5181 38.5 42 38.5C42.4819 38.5 42.875 38.1069 42.875 37.625C42.875 37.143 42.4819 36.75 42 36.75ZM21 40.25C20.5181 40.25 20.125 40.643 20.125 41.125C20.125 41.6069 20.5181 42 21 42C21.4819 42 21.875 41.6069 21.875 41.125C21.875 40.643 21.4819 40.25 21 40.25ZM42 40.25C41.5181 40.25 41.125 40.643 41.125 41.125C41.125 41.6069 41.5181 42 42 42C42.4819 42 42.875 41.6069 42.875 41.125C42.875 40.643 42.4819 40.25 42 40.25ZM5.25 44.625C4.76807 44.625 4.375 45.018 4.375 45.5C4.375 45.9819 4.76807 46.375 5.25 46.375C5.73193 46.375 6.125 45.9819 6.125 45.5C6.125 45.018 5.73193 44.625 5.25 44.625ZM8.75 44.625C8.26807 44.625 7.875 45.018 7.875 45.5C7.875 45.9819 8.26807 46.375 8.75 46.375C9.23193 46.375 9.625 45.9819 9.625 45.5C9.625 45.018 9.23193 44.625 8.75 44.625ZM54.25 51.625C53.7681 51.625 53.375 52.018 53.375 52.5C53.375 52.9819 53.7681 53.375 54.25 53.375C54.7319 53.375 55.125 52.9819 55.125 52.5C55.125 52.018 54.7319 51.625 54.25 51.625ZM57.75 51.625C57.2681 51.625 56.875 52.018 56.875 52.5C56.875 52.9819 57.2681 53.375 57.75 53.375C58.2319 53.375 58.625 52.9819 58.625 52.5C58.625 52.018 58.2319 51.625 57.75 51.625ZM61.25 51.625C60.7681 51.625 60.375 52.018 60.375 52.5C60.375 52.9819 60.7681 53.375 61.25 53.375C61.7319 53.375 62.125 52.9819 62.125 52.5C62.125 52.018 61.7319 51.625 61.25 51.625ZM58.625 59.5C58.625 59.5 56.875 62.9077 56.875 63.875C56.875 64.8423 57.6577 65.625 58.625 65.625C59.5923 65.625 60.375 64.8423 60.375 63.875C60.375 62.9077 58.625 59.5 58.625 59.5Z" fill="#E4B564"/>
</svg>

<svg width="70" height="70" fill="none" xmlns="http://www.w3.org/2000/svg"><path d="M14.937 11.03c-.202-.007-.4.017-.595.058-1.159.253-2.092 1.288-2.092 2.567v6.47a2.639 2.639 0 002.625 2.625h9.116c.386.967 1.158 1.75 2.259 1.75H28v2.625h-5.25c-1.1 0-1.873.783-2.26 1.75h-8.24a.88.88 0 00-.769.434.883.883 0 000 .882.88.88 0 00.769.434h7.875c0 .482.393.875.875.875a.877.877 0 00.875-.875v-.875a.86.86 0 01.875-.875h5.978a.79.79 0 00.284 0h4.966a.79.79 0 00.284 0h5.988a.86.86 0 01.875.875v.875c0 .482.393.875.875.875a.877.877 0 00.875-.875h4.375c9.19 0 16.625 7.434 16.625 16.625v6.125h.875a.86.86 0 01.875.875.86.86 0 01-.875.875h-14a.86.86 0 01-.875-.875.86.86 0 01.875-.875h.875V49a4.388 4.388 0 00-4.375-4.375h-4.375A.877.877 0 0042 43.75a.877.877 0 00-.875.875v.875a.86.86 0 01-.875.875h-17.5a.86.86 0 01-.875-.875v-.875A.877.877 0 0021 43.75a.877.877 0 00-.875.875H12.25a.88.88 0 00-.769.434.883.883 0 000 .882.88.88 0 00.769.434h8.24c.387.967 1.16 1.75 2.26 1.75h17.5c1.1 0 1.873-.783 2.26-1.75h4.74A2.613 2.613 0 0149.875 49v2.99c-.967.387-1.75 1.16-1.75 2.26a2.639 2.639 0 002.625 2.625h14a2.639 2.639 0 002.625-2.625c0-1.1-.783-1.873-1.75-2.26v-4.74c0-10.138-8.237-18.375-18.375-18.375h-4.74c-.387-.967-1.16-1.75-2.26-1.75H35V24.5h1.75c1.1 0 1.873-.783 2.26-1.75h9.115a2.639 2.639 0 002.625-2.625v-6.47c0-1.706-1.658-2.977-3.302-2.54l-9.826 2.622c-.93-.868-2.116-1.487-3.497-1.487h-5.25c-1.38 0-2.567.619-3.497 1.487l-9.826-2.622h-.004a2.535 2.535 0 00-.611-.085zm-.048 1.743c.068.003.14.014.212.034l10.756 2.871.362-.424A3.44 3.44 0 0128.875 14h5.25c1.073 0 2.01.489 2.656 1.254l.362.424 10.756-2.87a.857.857 0 011.101.847v6.47a.86.86 0 01-.875.875h-8.75a.877.877 0 00-.875-.875.877.877 0 00-.875.875v.875a.86.86 0 01-.875.875h-2.488c-.052-.007-.1-.014-.15-.014-.042.004-.086.007-.127.014h-4.973c-.052-.007-.1-.014-.15-.014-.042.004-.086.007-.127.014H26.25a.86.86 0 01-.875-.875V21a.877.877 0 00-.875-.875.877.877 0 00-.875.875h-8.75a.86.86 0 01-.875-.875v-6.47c0-.523.403-.9.889-.882zm9.611 3.852a.877.877 0 00-.875.875c0 .482.393.875.875.875a.877.877 0 00.875-.875.877.877 0 00-.875-.875zm14 0a.877.877 0 00-.875.875c0 .482.393.875.875.875a.877.877 0 00.875-.875.877.877 0 00-.875-.875zM29.75 24.5h3.5v2.625h-3.5V24.5zm-24.5 4.375a.877.877 0 00-.875.875c0 .482.393.875.875.875a.877.877 0 00.875-.875.877.877 0 00-.875-.875zm3.5 0a.877.877 0 00-.875.875c0 .482.393.875.875.875a.877.877 0 00.875-.875.877.877 0 00-.875-.875zM21 33.25a.877.877 0 00-.875.875c0 .482.393.875.875.875a.877.877 0 00.875-.875.877.877 0 00-.875-.875zm21 0a.877.877 0 00-.875.875c0 .482.393.875.875.875a.877.877 0 00.875-.875.877.877 0 00-.875-.875zm-21 3.5a.877.877 0 00-.875.875c0 .482.393.875.875.875a.877.877 0 00.875-.875.877.877 0 00-.875-.875zm21 0a.877.877 0 00-.875.875c0 .482.393.875.875.875a.877.877 0 00.875-.875.877.877 0 00-.875-.875zm-21 3.5a.877.877 0 00-.875.875c0 .482.393.875.875.875a.877.877 0 00.875-.875.877.877 0 00-.875-.875zm21 0a.877.877 0 00-.875.875c0 .482.393.875.875.875a.877.877 0 00.875-.875.877.877 0 00-.875-.875zM5.25 44.625a.877.877 0 00-.875.875c0 .482.393.875.875.875a.877.877 0 00.875-.875.877.877 0 00-.875-.875zm3.5 0a.877.877 0 00-.875.875c0 .482.393.875.875.875a.877.877 0 00.875-.875.877.877 0 00-.875-.875zm45.5 7a.877.877 0 00-.875.875c0 .482.393.875.875.875a.877.877 0 00.875-.875.877.877 0 00-.875-.875zm3.5 0a.877.877 0 00-.875.875c0 .482.393.875.875.875a.877.877 0 00.875-.875.877.877 0 00-.875-.875zm3.5 0a.877.877 0 00-.875.875c0 .482.393.875.875.875a.877.877 0 00.875-.875.877.877 0 00-.875-.875zM58.625 59.5s-1.75 3.408-1.75 4.375a1.749 1.749 0 103.5 0c0-.967-1.75-4.375-1.75-4.375z" fill="#E4B564"/></svg>
